svg/facebook1.svg

<svg width="25" height="24" viewBox="0 0 25 24" fill="none" xmlns="http://www.w3.org/2000/svg">
<rect x="0.5" width="24" height="24" rx="4" fill="#00B96B"/>
<path d="M9 9.77187H10.4729V8.32698C10.4729 7.68659 10.4729 6.70199 10.9532 6.09362C11.2168 5.73127 11.5681 5.44171 11.9741 5.25201C12.3801 5.06232 12.8275 4.97869 13.2746 5.00895C14.1728 4.96964 15.0719 5.05996 15.9443 5.27712L15.572 7.48247C15.1805 7.37406 14.7773 7.31358 14.3713 7.30236C13.7909 7.30236 13.2746 7.51048 13.2746 8.10285V9.77187H15.6521L15.488 11.9292H13.2746V19.4178H10.4729V11.9292H9V9.77187Z" fill="white"/>
</svg>

<?xml version="1.0" encoding="utf-8"?>
<!-- Generator: Adobe Illustrator 26.0.1, SVG Export Plug-In . SVG Version: 6.00 Build 0)  -->
<svg version="1.1" id="Layer_1" xmlns="http://www.w3.org/2000/svg" xmlns:xlink="http://www.w3.org/1999/xlink" x="0px" y="0px"
	 viewBox="0 0 25 24" style="enable-background:new 0 0 25 24;" xml:space="preserve">
<style type="text/css">
	.st0{fill:#00B96B;}
	.st1{fill:#FFFFFF;}
</style>
<path class="st0" d="M4.5,0h16c2.2,0,4,1.8,4,4v16c0,2.2-1.8,4-4,4h-16c-2.2,0-4-1.8-4-4V4C0.5,1.8,2.3,0,4.5,0z"/>
<path class="st1" d="M9,9.8h1.5V8.3c0-0.6,0-1.6,0.5-2.2c0.3-0.4,0.6-0.7,1-0.8C12.4,5.1,12.8,5,13.3,5c0.9,0,1.8,0.1,2.7,0.3
	l-0.4,2.2c-0.4-0.1-0.8-0.2-1.2-0.2c-0.6,0-1.1,0.2-1.1,0.8v1.7h2.4l-0.2,2.2h-2.2v7.5h-2.8v-7.5H9V9.8z"/>
</svg>
